Yaru++/status/16/dropboxstatus-idle.svg

<svg height="16" width="16" xmlns="http://www.w3.org/2000/svg"><path d="m4.2166043 1.1915905-4.20835585 2.5250134 3.36668465 2.5118836-3.3749331 2.5314098 4.2166043 2.5317477 3.3666844-2.5250137-4.2083556-2.5250143 4.2083556-2.5250131 4.2083563 2.5381431-4.2083563 2.5118843 1.495902 1.1227894a4.2083557 4.2083557 0 0 1 3.5543773-1.9610934 4.2083557 4.2083557 0 0 1 2.508601.836738l.024666-.0148133-3.374268-2.499763 3.366688-2.5250139-4.208356-2.5250134-3.366685 2.5118834-3.3666846-2.5118834zm8.4167107 7.5750408a3.3666847 3.3666847 0 0 0 -3.3666843 3.3666857 3.3666847 3.3666847 0 0 0 3.3666843 3.366683 3.3666847 3.3666847 0 0 0 3.366685-3.366683 3.3666847 3.3666847 0 0 0 -3.366685-3.3666857zm0 .414262a2.9458491 2.9458491 0 0 1 .457002.039487c-.16692-.026267-.335482-.040827-.504674-.037793a2.9458491 2.9458491 0 0 1 .04797-.00841zm-.05753.00167c-.135198.00247-.269949.015993-.404398.037787a2.9458491 2.9458491 0 0 1 .404394-.03779zm-.425768.041087c-.138694.0235497-.276905.056303-.412616.1002717a2.9458491 2.9458491 0 0 1 .412612-.1002753zm1.070185.021387a2.9458491 2.9458491 0 0 1 .338639.090413c-.110676-.036871-.224411-.0670843-.338643-.090417zm-1.489337.080548c-.128995.042167-.25532.095337-.379736.156172a2.9458491 2.9458491 0 0 1 .379736-.156172zm1.956212.055887a2.9458491 2.9458491 0 0 1 .310694.143016c-.10129-.053531-.204445-.1019643-.310698-.1430203zm-2.372166.118356c-.126705.064133-.250052.136384-.369872.220282-.166886.1168567-.318944.249118-.453712.3912497-.129028.136074-.24155.282903-.340288.437275a2.9458491 2.9458491 0 0 1 .340288-.437275 2.9458491 2.9458491 0 0 1 .823592-.6115317zm2.812696.096994a2.9458491 2.9458491 0 0 1 .355085.243294c-.112353-.091691-.232409-.1701756-.355092-.243293zm-6.5448343 0-3.3666839 2.5250137-.8416721-.504666v.50467l4.2083513 2.525014 1.2428107-.744686a4.2083557 4.2083557 0 0 1 -.401476-1.784342 4.2083557 4.2083557 0 0 1 .333302-1.641259l-1.1749734-.8837523zm6.9010303.2317967a2.9458491 2.9458491 0 0 1 .364939.355083 2.9458491 2.9458491 0 0 1 .0017.0017 2.9458491 2.9458491 0 0 1 .600018 1.089881 2.9458491 2.9458491 0 0 1 .08877.36823 2.9458491 2.9458491 0 0 1 .03617.38796c-.0043-.128806-.01599-.258424-.03703-.3872-.0202-.126248-.05051-.249134-.08837-.367808-.03787-.119518-.08248-.234826-.132984-.349294l-2.677857 3.059312-.289324.34193-.330424-.315628-1.264189-1.26419c-.158672-.158654-.158664-.44792 0-.606592.158671-.158654.447929-.158672.606592 0l.948563.948564 2.538143-2.906376c-.113287-.13056-.23479-.2487457-.365006-.3551163zm-4.361204.752899c-.09123.148472-.1672143.303154-.2301463.463576a2.9458491 2.9458491 0 0 1 .2301423-.46358zm-.2449483.50303c-.0606.160759-.1068907.326568-.1380327.494902a2.9458491 2.9458491 0 0 1 .1380847-.49481zm-.1479474.550706c-.0284933.170489-.0429333.344378-.0410933.51782a2.9458491 2.9458491 0 0 1 -.00167-.03779 2.9458491 2.9458491 0 0 1 .042733-.480014zm5.8473417.427409a2.9458491 2.9458491 0 0 1 .0017.05259 2.9458491 2.9458491 0 0 1 -.01808.32056c.01331-.123802.01889-.248159.01645-.373164zm-5.885133.147948c.00473.156956.0224.312799.0526.468508a2.9458491 2.9458491 0 0 1 -.0526-.468508zm.077264.580291c.035213.149741.081751.298834.1413753.443854a2.9458491 2.9458491 0 0 1 -.1413746-.443864zm.189048.550705c.06788.148016.147098.293145.241651.432341a2.9458491 2.9458491 0 0 1 -.2416503-.432349zm5.322896.0542c-.0029.0059-.0053.01213-.0082.01809a2.9458491 2.9458491 0 0 1 -.06247.126578c-.0031.0059-.0068.01085-.0099.01641.02939-.05251.05456-.107068.08055-.161104zm-.162745.294256c-.0059.0091-.01055.01885-.01645.02795a2.9458491 2.9458491 0 0 1 -.08548.123296c.03583-.04957.06946-.09988.101916-.15124zm-4.857705.166037c.09231.126259.193449.241348.300829.348502a2.9458491 2.9458491 0 0 1 -.300829-.348502zm4.642321.134792c-.0035.0043-.0063.0089-.0099.01313a2.9458491 2.9458491 0 0 1 -.141375.15288c.05217-.05412.103879-.108744.15124-.166036zm-4.239581.312344c.105461.09549.217656.18016.333704.258091a2.9458491 2.9458491 0 0 1 -.334984-.257546zm3.603361.261374a2.9458491 2.9458491 0 0 1 -.389601.218641c-.006.0025-.01204.0051-.01808.0084.1395-.06439.275984-.138733.407689-.226864zm-3.116792.0937c.105572.06179.215603.114999.327133.162747a2.9458491 2.9458491 0 0 1 -.327131-.162752zm2.594031.184116c-.0039.0017-.0077.0033-.01151.0051a2.9458491 2.9458491 0 0 1 -.384667.123302c.133515-.03375.266541-.07499.396175-.128229zm-2.040043.06413c.113408.03779.226671.07331.343571.09699a2.9458491 2.9458491 0 0 1 -.343571-.09698zm1.440016.106859a2.9458491 2.9458491 0 0 1 -.3633.04277c-.0039.000194-.0077-.000176-.01151 0 .125568-.0059.250035-.02061.374804-.04277zm-.920621.01809c.115723.01625.233051.02391.350152.02627-.0049-.000109-.0098.000127-.0148 0a2.9458491 2.9458491 0 0 1 -.3222-.02467c-.0045-.00065-.0088-.000866-.01316-.0017z" fill="#fff" stroke-width=".727273"/></svg>

<?xml version="1.0" encoding="UTF-8" standalone="no"?>
<svg
   xmlns:dc="http://purl.org/dc/elements/1.1/"
   xmlns:cc="http://creativecommons.org/ns#"
   xmlns:rdf="http://www.w3.org/1999/02/22-rdf-syntax-ns#"
   xmlns:svg="http://www.w3.org/2000/svg"
   xmlns="http://www.w3.org/2000/svg"
   xmlns:sodipodi="http://sodipodi.sourceforge.net/DTD/sodipodi-0.dtd"
   xmlns:inkscape="http://www.inkscape.org/namespaces/inkscape"
   height="16"
   width="16"
   version="1.1"
   id="svg4"
   sodipodi:docname="dropboxstatus-idle.svg"
   inkscape:version="0.92.5 (2060ec1f9f, 2020-04-08)">
  <metadata
     id="metadata10">
    <rdf:RDF>
      <cc:Work
         rdf:about="">
        <dc:format>image/svg+xml</dc:format>
        <dc:type
           rdf:resource="http://purl.org/dc/dcmitype/StillImage" />
        <dc:title></dc:title>
      </cc:Work>
    </rdf:RDF>
  </metadata>
  <defs
     id="defs8" />
  <sodipodi:namedview
     pagecolor="#ffffff"
     bordercolor="#666666"
     borderopacity="1"
     objecttolerance="10"
     gridtolerance="10"
     guidetolerance="10"
     inkscape:pageopacity="0"
     inkscape:pageshadow="2"
     inkscape:window-width="1920"
     inkscape:window-height="1016"
     id="namedview6"
     showgrid="false"
     inkscape:zoom="29.283478"
     inkscape:cx="9.4946252"
     inkscape:cy="16.30841"
     inkscape:window-x="0"
     inkscape:window-y="27"
     inkscape:window-maximized="1"
     inkscape:current-layer="svg4" />
  <path
     d="M 4.2166043,1.1915905 0.00824845,3.7166039 3.3749331,6.2284875 0,8.7598973 4.2166043,11.291645 7.5832887,8.7666313 3.3749331,6.241617 7.5832887,3.7166039 11.791645,6.254747 7.5832887,8.7666313 9.0791907,9.8894207 a 4.2083557,4.2083557 0 0 1 3.5543773,-1.9610934 4.2083557,4.2083557 0 0 1 2.508601,0.836738 L 15.166835,8.750252 11.792567,6.250489 15.159255,3.7254751 10.950899,1.2004617 7.584214,3.7123451 4.2175294,1.2004617 Z M 12.633315,8.7666313 A 3.3666847,3.3666847 0 0 0 9.2666307,12.133317 3.3666847,3.3666847 0 0 0 12.633315,15.5 3.3666847,3.3666847 0 0 0 16,12.133317 3.3666847,3.3666847 0 0 0 12.633315,8.7666313 Z m 0,0.414262 a 2.9458491,2.9458491 0 0 1 0.457002,0.039487 c -0.16692,-0.026267 -0.335482,-0.040827 -0.504674,-0.037793 a 2.9458491,2.9458491 0 0 1 0.04797,-0.00841 z m -0.05753,0.00167 c -0.135198,0.00247 -0.269949,0.015993 -0.404398,0.037787 a 2.9458491,2.9458491 0 0 1 0.404394,-0.03779 z m -0.425768,0.041087 C 12.011323,9.2472 11.873112,9.2799533 11.737401,9.323922 a 2.9458491,2.9458491 0 0 1 0.412612,-0.1002753 z m 1.070185,0.021387 a 2.9458491,2.9458491 0 0 1 0.338639,0.090413 C 13.448165,9.2985793 13.33443,9.268366 13.220198,9.2450333 Z m -1.489337,0.080548 c -0.128995,0.042167 -0.25532,0.095337 -0.379736,0.156172 a 2.9458491,2.9458491 0 0 1 0.379736,-0.156172 z m 1.956212,0.055887 a 2.9458491,2.9458491 0 0 1 0.310694,0.143016 C 13.896481,9.4709573 13.793326,9.422524 13.687073,9.381468 Z m -2.372166,0.118356 c -0.126705,0.064133 -0.250052,0.136384 -0.369872,0.220282 -0.166886,0.1168567 -0.318944,0.249118 -0.453712,0.3912497 -0.129028,0.136074 -0.24155,0.282903 -0.340288,0.437275 a 2.9458491,2.9458491 0 0 1 0.340288,-0.437275 2.9458491,2.9458491 0 0 1 0.823592,-0.6115317 z m 2.812696,0.096994 a 2.9458491,2.9458491 0 0 1 0.355085,0.243294 C 14.370339,9.7484253 14.250283,9.6699407 14.1276,9.5968233 Z m -6.5448343,0 L 4.2160888,12.121836 3.3744167,11.61717 v 0.50467 l 4.2083513,2.525014 1.2428107,-0.744686 a 4.2083557,4.2083557 0 0 1 -0.401476,-1.784342 4.2083557,4.2083557 0 0 1 0.333302,-1.641259 L 7.5824313,9.5928147 Z M 14.483803,9.828619 a 2.9458491,2.9458491 0 0 1 0.364939,0.355083 2.9458491,2.9458491 0 0 1 0.0017,0.0017 2.9458491,2.9458491 0 0 1 0.600018,1.089881 2.9458491,2.9458491 0 0 1 0.08877,0.36823 2.9458491,2.9458491 0 0 1 0.03617,0.38796 c -0.0043,-0.128806 -0.01599,-0.258424 -0.03703,-0.3872 -0.0202,-0.126248 -0.05051,-0.249134 -0.08837,-0.367808 -0.03787,-0.119518 -0.08248,-0.234826 -0.132984,-0.349294 l -2.677857,3.059312 -0.289324,0.34193 -0.330424,-0.315628 -1.264189,-1.26419 c -0.158672,-0.158654 -0.158664,-0.44792 0,-0.606592 0.158671,-0.158654 0.447929,-0.158672 0.606592,0 l 0.948563,0.948564 2.538143,-2.906376 C 14.735233,10.053631 14.61373,9.9354453 14.483514,9.8290747 Z m -4.361204,0.752899 c -0.09123,0.148472 -0.1672143,0.303154 -0.2301463,0.463576 a 2.9458491,2.9458491 0 0 1 0.2301423,-0.46358 z m -0.2449483,0.50303 C 9.8170507,11.245307 9.77076,11.411116 9.739618,11.57945 A 2.9458491,2.9458491 0 0 1 9.8777027,11.08464 Z M 9.7297033,11.635254 C 9.70121,11.805743 9.68677,11.979632 9.68861,12.153074 A 2.9458491,2.9458491 0 0 1 9.68694,12.115284 2.9458491,2.9458491 0 0 1 9.729673,11.63527 Z m 5.8473417,0.427409 a 2.9458491,2.9458491 0 0 1 0.0017,0.05259 2.9458491,2.9458491 0 0 1 -0.01808,0.32056 c 0.01331,-0.123802 0.01889,-0.248159 0.01645,-0.373164 z m -5.885133,0.147948 c 0.00473,0.156956 0.0224,0.312799 0.0526,0.468508 a 2.9458491,2.9458491 0 0 1 -0.0526,-0.468508 z m 0.077264,0.580291 c 0.035213,0.149741 0.081751,0.298834 0.1413753,0.443854 A 2.9458491,2.9458491 0 0 1 9.7691767,12.790892 Z m 0.189048,0.550705 c 0.06788,0.148016 0.147098,0.293145 0.241651,0.432341 A 2.9458491,2.9458491 0 0 1 9.9582247,13.341599 Z m 5.322896,0.0542 c -0.0029,0.0059 -0.0053,0.01213 -0.0082,0.01809 a 2.9458491,2.9458491 0 0 1 -0.06247,0.126578 c -0.0031,0.0059 -0.0068,0.01085 -0.0099,0.01641 0.02939,-0.05251 0.05456,-0.107068 0.08055,-0.161104 z m -0.162745,0.294256 c -0.0059,0.0091 -0.01055,0.01885 -0.01645,0.02795 a 2.9458491,2.9458491 0 0 1 -0.08548,0.123296 c 0.03583,-0.04957 0.06946,-0.09988 0.101916,-0.15124 z M 10.26067,13.8561 c 0.09231,0.126259 0.193449,0.241348 0.300829,0.348502 A 2.9458491,2.9458491 0 0 1 10.26067,13.8561 Z m 4.642321,0.134792 c -0.0035,0.0043 -0.0063,0.0089 -0.0099,0.01313 a 2.9458491,2.9458491 0 0 1 -0.141375,0.15288 c 0.05217,-0.05412 0.103879,-0.108744 0.15124,-0.166036 z m -4.239581,0.312344 c 0.105461,0.09549 0.217656,0.18016 0.333704,0.258091 A 2.9458491,2.9458491 0 0 1 10.66213,14.303781 Z m 3.603361,0.261374 a 2.9458491,2.9458491 0 0 1 -0.389601,0.218641 c -0.006,0.0025 -0.01204,0.0051 -0.01808,0.0084 0.1395,-0.06439 0.275984,-0.138733 0.407689,-0.226864 z m -3.116792,0.0937 c 0.105572,0.06179 0.215603,0.114999 0.327133,0.162747 a 2.9458491,2.9458491 0 0 1 -0.327131,-0.162752 z m 2.594031,0.184116 c -0.0039,0.0017 -0.0077,0.0033 -0.01151,0.0051 a 2.9458491,2.9458491 0 0 1 -0.384667,0.123302 c 0.133515,-0.03375 0.266541,-0.07499 0.396175,-0.128229 z m -2.040043,0.06413 c 0.113408,0.03779 0.226671,0.07331 0.343571,0.09699 a 2.9458491,2.9458491 0 0 1 -0.343571,-0.09698 z m 1.440016,0.106859 a 2.9458491,2.9458491 0 0 1 -0.3633,0.04277 c -0.0039,1.94e-4 -0.0077,-1.76e-4 -0.01151,0 0.125568,-0.0059 0.250035,-0.02061 0.374804,-0.04277 z m -0.920621,0.01809 c 0.115723,0.01625 0.233051,0.02391 0.350152,0.02627 -0.0049,-1.09e-4 -0.0098,1.27e-4 -0.0148,0 a 2.9458491,2.9458491 0 0 1 -0.3222,-0.02467 c -0.0045,-6.5e-4 -0.0088,-8.66e-4 -0.01316,-0.0017 z"
     id="path2"
     inkscape:connector-curvature="0"
     style="fill:#ffffff;stroke-width:0.72727281" />
</svg>
